COLOR/action 16/16/playlist_display-read.svg

<svg height="16" width="16" xmlns="http://www.w3.org/2000/svg"><g transform="translate(-411.99997 -119.99994)"><path d="m416.85503 120.49995c-3.04166 0-3.36894.30899-3.35403 3.32331v4.17669 4.17668c-.0149 3.01433.31237 3.32332 3.35403 3.32332h6.29146c3.04167 0 3.35404-.30895 3.35404-3.32332v-4.17668-4.17669c0-3.01436-.31238-3.32331-3.35404-3.32331z" fill="#c9c9c9"/><rect fill="#5d5d5d" height="4.743747" rx="1.185937" width="9.487494" x="415.25679" y="121.999954"/><g fill="#5d5d5d" transform="matrix(1.1859367 0 0 1.1859367 -61.489765 -23.277211)"><path d="m402.99997 128.61851v4l3-2z"/><path d="m406.53513 128.61851v4h1v-4z"/><path d="m407.99997 128.61851v4h1v-4z"/></g><g transform="translate(411.99997 119.99994)"><path d="m4.8554688.5c-3.04166 0-3.3684257.30989875-3.3535157 3.3242188v.5c-.01491-3.0143201.3118557-3.3242188 3.3535157-3.3242188h6.2910152c3.04166 0 3.353516.3098588 3.353516 3.3242188v-.5c0-3.01436005-.311856-3.3242188-3.353516-3.3242188z" fill="#fff" opacity=".3"/><path d="m1.5019531 11.675781v.5c-.0149 3.01433.3118556 3.324219 3.3535157 3.324219h6.2910152c3.04167 0 3.353516-.309849 3.353516-3.324219v-.5c0 3.01437-.311846 3.324219-3.353516 3.324219h-6.2910152c-3.0416601 0-3.3684157-.309889-3.3535157-3.324219z" opacity=".2"/></g></g></svg>

<?xml version="1.0" encoding="UTF-8" standalone="no"?>
<svg
   xmlns:dc="http://purl.org/dc/elements/1.1/"
   xmlns:cc="http://creativecommons.org/ns#"
   xmlns:rdf="http://www.w3.org/1999/02/22-rdf-syntax-ns#"
   xmlns:svg="http://www.w3.org/2000/svg"
   xmlns="http://www.w3.org/2000/svg"
   xmlns:sodipodi="http://sodipodi.sourceforge.net/DTD/sodipodi-0.dtd"
   xmlns:inkscape="http://www.inkscape.org/namespaces/inkscape"
   width="16"
   height="16"
   version="1.1"
   id="svg10"
   sodipodi:docname="playlist_display-read.svg"
   inkscape:version="0.92.4 (5da689c313, 2019-01-14)">
  <metadata
     id="metadata16">
    <rdf:RDF>
      <cc:Work
         rdf:about="">
        <dc:format>image/svg+xml</dc:format>
        <dc:type
           rdf:resource="http://purl.org/dc/dcmitype/StillImage" />
        <dc:title />
      </cc:Work>
    </rdf:RDF>
  </metadata>
  <defs
     id="defs14">
    <clipPath
       clipPathUnits="userSpaceOnUse"
       id="clipPath983">
      <path
         sodipodi:nodetypes="scccssscsss"
         inkscape:connector-curvature="0"
         id="path985"
         d="m 325.09646,237 c -2.80769,0 -3.10979,0.28839 -3.09603,3.10176 V 244 v 3.89824 c -0.0138,2.81337 0.28834,3.10176 3.09603,3.10176 h 5.8075 C 333.71166,251 334,250.71165 334,247.89824 V 244 240.10176 C 334,237.28836 333.71165,237 330.90396,237 Z"
         style="color:#000000;display:inline;overflow:visible;visibility:visible;opacity:1;fill:#46a926;fill-opacity:1;fill-rule:nonzero;stroke:none;stroke-width:2;stroke-miterlimit:4;stroke-dasharray:none;stroke-opacity:1;marker:none;enable-background:accumulate" />
    </clipPath>
  </defs>
  <sodipodi:namedview
     pagecolor="#ffffff"
     bordercolor="#666666"
     borderopacity="1"
     objecttolerance="10"
     gridtolerance="10"
     guidetolerance="10"
     inkscape:pageopacity="0"
     inkscape:pageshadow="2"
     inkscape:window-width="1920"
     inkscape:window-height="1016"
     id="namedview12"
     showgrid="true"
     inkscape:zoom="52.437504"
     inkscape:cx="3.7952755"
     inkscape:cy="7.999995"
     inkscape:window-x="0"
     inkscape:window-y="27"
     inkscape:window-maximized="1"
     inkscape:current-layer="g8"
     showguides="true"
     inkscape:guide-bbox="true">
    <inkscape:grid
       type="xygrid"
       id="grid823" />
  </sodipodi:namedview>
  <g
     transform="translate(-411.99997,-119.99994)"
     id="g8">
    <path
       style="color:#000000;display:inline;overflow:visible;visibility:visible;fill:#c9c9c9;fill-opacity:1;fill-rule:nonzero;stroke:none;stroke-width:1;marker:none;enable-background:accumulate"
       d="m 416.85503,120.49995 c -3.04166,0 -3.36894,0.30899 -3.35403,3.32331 v 4.17669 4.17668 c -0.0149,3.01433 0.31237,3.32332 3.35403,3.32332 h 6.29146 c 3.04167,0 3.35404,-0.30895 3.35404,-3.32332 v -4.17668 -4.17669 c 0,-3.01436 -0.31238,-3.32331 -3.35404,-3.32331 z"
       id="path918"
       inkscape:connector-curvature="0"
       sodipodi:nodetypes="scccssscsss" />
    <g
       id="g845"
       transform="translate(5.2956978e-4,-0.37186583)">
      <rect
         ry="1.1859367"
         rx="1.1859367"
         style="display:inline;opacity:1;fill:#5d5d5d;fill-opacity:1;stroke:none;stroke-width:1.18593669;stroke-linecap:butt;stroke-linejoin:miter;stroke-miterlimit:4;stroke-dasharray:none;stroke-dashoffset:1;stroke-opacity:1;enable-background:new"
         id="rect1535"
         width="9.4874935"
         height="4.7437468"
         x="415.25626"
         y="122.37182" />
      <g
         style="fill:#5d5d5d;fill-opacity:1"
         transform="matrix(1.1859367,0,0,1.1859367,-61.490295,-22.905345)"
         id="g876">
        <path
           style="fill:#5d5d5d;fill-opacity:1;stroke:none;stroke-width:1px;stroke-linecap:butt;stroke-linejoin:miter;stroke-opacity:1"
           d="m 402.99997,128.61851 v 4 l 3,-2 z"
           id="path825"
           inkscape:connector-curvature="0" />
        <path
           style="fill:#5d5d5d;fill-opacity:1;stroke:none;stroke-width:1px;stroke-linecap:butt;stroke-linejoin:miter;stroke-opacity:1"
           d="m 406.53513,128.61851 v 4 h 1 v -4 z"
           id="path827"
           inkscape:connector-curvature="0" />
        <path
           inkscape:connector-curvature="0"
           id="path829"
           d="m 407.99997,128.61851 v 4 h 1 v -4 z"
           style="fill:#5d5d5d;fill-opacity:1;stroke:none;stroke-width:1px;stroke-linecap:butt;stroke-linejoin:miter;stroke-opacity:1" />
      </g>
    </g>
    <path
       style="color:#000000;display:inline;overflow:visible;visibility:visible;fill:#ffffff;fill-opacity:1;fill-rule:nonzero;stroke:none;stroke-width:1;marker:none;enable-background:accumulate;opacity:0.3"
       d="M 4.8554688 0.5 C 1.8138088 0.5 1.4870431 0.80989875 1.5019531 3.8242188 L 1.5019531 4.3242188 C 1.4870431 1.3098987 1.8138088 1 4.8554688 1 L 11.146484 1 C 14.188144 1 14.5 1.3098588 14.5 4.3242188 L 14.5 3.8242188 C 14.5 0.80985875 14.188144 0.5 11.146484 0.5 L 4.8554688 0.5 z "
       transform="translate(411.99997,119.99994)"
       id="path830" />
    <path
       style="color:#000000;display:inline;overflow:visible;visibility:visible;fill:#000000;fill-opacity:1;fill-rule:nonzero;stroke:none;stroke-width:1;marker:none;enable-background:accumulate;opacity:0.2"
       d="M 1.5019531 11.675781 L 1.5019531 12.175781 C 1.4870531 15.190111 1.8138087 15.5 4.8554688 15.5 L 11.146484 15.5 C 14.188154 15.5 14.5 15.190151 14.5 12.175781 L 14.5 11.675781 C 14.5 14.690151 14.188154 15 11.146484 15 L 4.8554688 15 C 1.8138087 15 1.4870531 14.690111 1.5019531 11.675781 z "
       transform="translate(411.99997,119.99994)"
       id="path835" />
  </g>
</svg>
